X:1
T:Transit of Venus March
T:Transit of Venus March
T:John Philip Sousa 1854 - 1932 
T:Amended with reference to original 1896 J.W.Pepper score - JN 25 Mar 18
C:John Philip Sousa
%%score { 1 | 2 }
L:1/8
Q:1/4=120
M:6/8
K:G
V:1 treble nm="Piano" snm="Pno."
V:2 bass 
V:1
!f! [gg'][ff'][ee'] [dd'][ee'][ff'] | [gg'][ff'][ee'] [dd'][ee'][dd'] | %2
 [^c^c'][dd'][cc'] [=c=c'][Bb][Aa] | [Gg]2 z!mf! ded |: (!>!^c2 d) [GB]2 [GB] | [GB]2 [GB] [GB]ed | %6
 (!>!^c2 d) [FA]2 [FA] | [FA]2 [FA] Ada |!f! [Acg]2 [Acg] [Acg]2 [Acf] | %9
!f!!<(! [Acf]2 [Acf] [Acf]2 [ce]!<)! |!ff!!>(! [ce][df][eg] [df]2 [ce] | [Bd]3!>)!!f! Bed | %12
!f! (!>!^c2 d) B2 B | B2 B Bed | (!>!^c2 d) A2 A | A2 A Adf | a2 b afd | Adf ab^b | ^c'2 b age |1 %19
!mf! d3 ded :|2 d2 d d^cd |:[K:G]!f! e2 d c'ba | g2 a bag | fga f2 e | d3 ded | %25
!mp! ([Fc]2 d) ([GB]2 d) | ([Fc]2 d) ([GB]2 d) | (([Fc]2 d)) (([Acf]2 e)) | [Bd]3!f! dgb | %29
 e2 d c'ba | g2 a bag | fga f2 e | d3 ded |!mp! ([Fc]2 d) ([GB]2 d) | ([Fc]2 d) ([GB]2 d) | %35
!f! cde f2 d |1 g2 d d^cd :|2 g2 z [GBdg]2 z ||[K:C]!mf! [Ee]3 [Ee] z2 | [Ee]3 [Ee] z2 | %40
!<(! [Gg]3 [^F^f]3!<)! |!f!!>(! [!courtesy!=F!courtesy!=f]3 [Ee]3!>)! |!mf! [Fd]3 [Fd]3 | %43
 d e2- e2 d | c c'2- c'2 a | g3 [Bdg]2 f | [Ee]3 [Ee] z2 | [Ee]3 [Ee] z2 |!<(! [Gg]3 [^F^f]3!<)! | %49
!f!!>(! [!courtesy!=F!courtesy!=f]3 [Ee]3!>)! |!mf! [FAd]3 [FAd]3 | d e2- e2 d | [EGc]6- | %53
 [EGc]2 c c2 c ||[K:Db]!f! d3 d3 | d3 d3 | d3 a3 | f3 d3 | (c c'2- c'2) c' | [cc']3 [cb]3 | %60
 [dfa]6- | [dfa]3 c2 c | [fad']3 [fad']3 | [gac']3 [gac']3 | [d=gb]3 [dgb]3 | [cfa]3 [cfa]3 | %66
!f!!<(! [ce=g]3 [ceg]3 | [cfa]3 [cea]3!<)! |!ff! [=B=d=g]2 g g2 g | %69
"^Natural missing in original ?" =g2 g g2 g ||[K:C]!mf! [ee']3 [ee'] z2 | [ee']3 [ee'] z2 | %72
!<(! [gg']3 [^f^f']3!<)! |!f!!>(! [!courtesy!=f!courtesy!=f']3 [ee']3!>)! |!mf! [dd']3 [dd']3 | %75
 [dd'] [ee']2- [ee']2 [dd'] | c c'2- c'2 a | g3 [gg']2 [ff'] | [ee']3 [ee'] z2 | [ee']3 [ee'] z2 | %80
!<(! [gg']3 [^f^f']3!<)! |!f!!>(! [!courtesy!=f!courtesy!=f']3 [ee']3!>)! |!mf! [dd']3 [dd']3 | %83
 [dd'] [ee']2- [ee']2 [dd'] | [cc']6- | [cc']3 [cegc']2 !fermata!z!fine! |] %86
V:2
!f! [G,G][F,F][E,E] [D,D][E,E][F,F] | [G,G][F,F][E,E] [D,D][E,E][D,D] | %2
 [^C,^C][D,D][C,C] [=C,=C][B,,B,][A,,A,] | [G,,G,]2!mp! z4 |: G,,2 [D,G,B,] D,2 [D,G,B,] | %5
 G,,2 [D,G,B,] D,2 [D,G,B,] | A,,2 [F,A,C] D,2 [F,A,C] | A,,2 [F,A,C] D,2 [F,A,C] | %8
!mf! A,,2 [F,A,C] D,2 [F,A,C] | A,,2 [F,A,C] D,2 [F,A,C] | A,,2 [F,A,C] D,2 [F,A,C] | %11
 G,,2 [D,G,B,] D,2 [D,G,B,] | G,,2 [D,G,B,] D,2 [D,G,B,] | G,,2 [D,G,B,] D,2 [D,G,B,] | %14
 A,,2 [F,A,D] D,2 [F,A,D] | D,2 [F,A,D] [F,A,D]2 [F,A,D] | D,2 [F,A,D] [F,A,D]2 [F,A,D] | %17
 D,2 [F,A,D] [F,A,D]2 [F,A,D] | E,2 [G,A,^C] A,,2 [E,G,A,C] |1!mp! [F,A,D]3 [D,F,A,C]3 :|2 %20
 [F,A,D]2 z4 |:[K:G]!mp! A,,2 [D,F,C] D,,2 [D,F,C] | G,,2 [D,G,B,] D,,2 [D,G,B,] | %23
 A,,2 [D,F,C] D,,2 [D,F,C] | G,,2 [D,G,B,] [D,G,B,]2 [D,G,B,] | %25
!p! [D,F,A,C]2 [D,F,A,C] [D,G,B,]2 [D,G,B,] | [D,F,A,C]2 [D,F,A,C] [D,G,B,]2 [D,G,B,] | %27
 A,,2 [D,F,C] D,,2 [D,F,C] | G,,2 [D,G,B,]!mp! [D,G,B,]2 [D,G,B,] | A,,2 [D,F,C] D,,2 [D,F,C] | %30
 G,,2 [D,G,B,] [D,G,B,]2 [D,G,B,] | A,,2 [D,F,C] D,,2 [D,F,C] | %32
 [G,,G,]2 [D,G,B,] [D,G,B,]2 [D,G,B,] |!p! [D,F,A,C]2 [D,F,A,C] [D,G,B,]2 [D,G,B,] | %34
 [D,F,A,C]2 [D,F,A,C] [D,G,B,]2 [D,G,B,] |!mp! A,,2 [D,F,C] D,,2 [D,F,C] |1 [D,G,B,]2 z4 :|2 %37
 [D,G,B,]2 z [G,,G,]2 z ||[K:C]!mp! C, z [E,G,C] B,, z [E,^G,D] | %39
 A,, z [E,A,C] G,, z [!courtesy!=G,C] | G,, z [G,B,D] A,, z [A,CD] | B,, z [G,B,D] C, z [G,C] | %42
 F,2 [F,A,D] [F,A,D]2 [F,A,D] | [G,,G,]2 [G,B,F] [G,B,F]2 [G,B,F] | [G,CE]3 [^F,A,C^D]3 | %45
 [G,CE]3 [G,,G,]3 | C, z [E,G,C] B,, z [E,^G,D] | A,, z [E,A,C] G,, z [!courtesy!=G,C] | %48
 G,, z [G,B,D] A,, z [A,CD] | B,, z [G,B,D] C, z [G,C] | F,2 [F,A,D] [F,A,D]2 [F,A,D] | %51
 [G,,G,]2 [G,B,F] [G,B,F]2 [G,B,F] | [C,C]2 [A,,A,] [G,,G,]2 [E,,E,] | [C,,C,]2 z4 || %54
[K:Db]!mp! D,2 [A,DF] [A,DF]2 [A,DF] | D,2 [A,DF] [A,DF]2 [A,DF] | D,2 [A,DF] A,,2 [A,DF] | %57
 D,2 [A,DF] A,,2 [A,DF] | C,2 [A,CG] A,,2 [A,CG] | A,,2 [A,CG] [A,CG]2 [A,CG] | %60
 [D,,D,]2 [E,,E,] [F,,F,]2 [G,,G,] | [A,,A,]3 [A,CEG]3 | D,2 [A,DF] [A,DF]2 [A,DF] | %63
 E,2 [A,CG] [A,CG]2 [A,CG] | =E,2 [B,D=E] [B,DE]2 [B,DE] | F,2 [F,A,C] [F,A,C]2 [F,A,C] | %66
 [=G,,=G,]3 [G,,G,]3 | [F,,F,]3 [^F,,^F,]3 | [=G,,=G,]3 [!courtesy!=F,,!courtesy!=F,]3 | %69
 [=D,,=D,]3 [=G,,=G,]3 ||[K:C]!mp! [C,C] z [G,CE] [B,,B,] z [^G,B,D] | %71
 [A,,A,] z [E,A,C] [G,,G,] z [!courtesy!=G,CE] | [G,,G,] z [G,B,F] [A,,A,] z [CD^F] | %73
 [B,,B,] z [G,D=F] [C,C] z [G,CE] | [F,,F,]2 [F,A,D] [F,A,D]2 [F,A,D] | %75
 [G,,G,]2 [G,B,F] [G,B,F]2 [G,B,F] | [C,C]3 [^F,A,C_E]3 | [G,C=E]3 [G,B,DF]3 | %78
!mp! [C,C] z [G,CE] [B,,B,] z [^G,B,D] | [A,,A,] z [E,A,C] [G,,G,] z [!courtesy!=G,CE] | %80
 [G,,G,] z [G,B,F] [A,,A,] z [CD^F] | [B,,B,] z [G,D=F] [C,C] z [G,CE] | %82
 [F,,F,]2 [F,A,D] [F,A,D]2 [F,A,D] | [G,,G,]2 [G,B,DF] [G,B,DF]2 [G,B,DF] | %84
 [G,CE]2 [G,,G,] [A,,A,][G,,G,][E,,E,] | [C,,C,]3 [C,C]2 z |] %86

